images/advantages-icon-12.svg

<svg width="27" height="28" viewBox="0 0 27 28" fill="none" xmlns="http://www.w3.org/2000/svg">
<path d="M19.4656 0.851562H16.0523C11.8513 0.851562 9.22559 3.47724 9.22559 7.6783V12.9952H15.0545L12.337 10.2777C12.14 10.0808 12.0482 9.83126 12.0482 9.58185C12.0482 9.33245 12.14 9.08295 12.337 8.88602C12.7177 8.50537 13.3479 8.50537 13.7286 8.88602L18.1265 13.284C18.5073 13.6648 18.5073 14.2949 18.1265 14.6756L13.7286 19.0735C13.3479 19.4543 12.7177 19.4543 12.337 19.0735C11.9563 18.6928 11.9563 18.0626 12.337 17.682L15.0545 14.9644H9.22559V20.2814C9.22559 24.4823 11.8513 27.108 16.0523 27.108H19.4525C23.6535 27.108 26.2791 24.4823 26.2791 20.2814V7.6783C26.2923 3.47724 23.6666 0.851562 19.4656 0.851562Z" fill="white"/>
<path d="M1.02075 12.9961C0.482459 12.9961 0.0361328 13.4424 0.0361328 13.9807C0.0361328 14.5189 0.482459 14.9653 1.02075 14.9653H9.22584V12.9961H1.02075Z" fill="white"/>
</svg>

<svg width="27" height="28" fill="none" xmlns="http://www.w3.org/2000/svg"><path d="M19.466.852h-3.414c-4.2 0-6.826 2.625-6.826 6.826v5.317h5.829l-2.718-2.717a.974.974 0 01-.289-.696c0-.25.092-.5.289-.696a.99.99 0 011.392 0l4.398 4.398a.99.99 0 010 1.392l-4.398 4.397a.99.99 0 01-1.392 0 .99.99 0 010-1.391l2.718-2.718h-5.83v5.317c0 4.201 2.626 6.827 6.827 6.827h3.4c4.201 0 6.827-2.626 6.827-6.827V7.678c.013-4.2-2.612-6.826-6.813-6.826z" fill="#fff"/><path d="M1.02 12.996a.992.992 0 00-.984.985c0 .538.446.984.985.984h8.205v-1.969H1.02z" fill="#fff"/></svg>
